Papirus/64x64/mimetypes/application-gvdesign.svg

<?xml version="1.0" encoding="UTF-8" standalone="no"?>
<svg
   id="_图层_1"
   data-name="图层_1"
   version="1.1"
   viewBox="0 0 128 128"
   width="64"
   height="64"
   sodipodi:docname="application-gvdesign.svg"
   xml:space="preserve"
   inkscape:version="1.4 (e7c3feb100, 2024-10-09)"
   xmlns:inkscape="http://www.inkscape.org/namespaces/inkscape"
   xmlns:sodipodi="http://sodipodi.sourceforge.net/DTD/sodipodi-0.dtd"
   xmlns="http://www.w3.org/2000/svg"
   xmlns:svg="http://www.w3.org/2000/svg"><sodipodi:namedview
     id="namedview3"
     pagecolor="#505050"
     bordercolor="#eeeeee"
     borderopacity="1"
     inkscape:showpageshadow="0"
     inkscape:pageopacity="0"
     inkscape:pagecheckerboard="0"
     inkscape:deskcolor="#505050"
     inkscape:zoom="10.6875"
     inkscape:cx="32.093567"
     inkscape:cy="32"
     inkscape:window-width="1920"
     inkscape:window-height="939"
     inkscape:window-x="0"
     inkscape:window-y="34"
     inkscape:window-maximized="1"
     inkscape:current-layer="_图层_1" /><!-- Generator: Adobe Illustrator 29.0.1, SVG Export Plug-In . SVG Version: 2.1.0 Build 192)  --><defs
     id="defs1"><style
       id="style1">
      .st0 {
        fill: #0071e9;
      }

      .st1 {
        fill: #fff;
      }

      .st2 {
        fill: #5aaaff;
        isolation: isolate;
        opacity: .5;
      }
    </style><style
       id="style1-6">
      .st0 {
        fill: #9c27b0;
      }

      .st1 {
        fill: #999;
      }

      .st2, .st3 {
        isolation: isolate;
        opacity: .2;
      }

      .st4 {
        display: none;
      }

      .st5 {
        fill: #f4f4f4;
      }

      .st3 {
        fill: #fff;
      }

      .st6 {
        fill: #e4e4e4;
      }

      .st7 {
        fill: #fefdfe;
      }

      .st8 {
        fill: url(#_未命名的渐变_2);
      }
    </style><linearGradient
       id="_未命名的渐变_2"
       data-name="未命名的渐变 2"
       x1="1016.8"
       y1="-1278.7"
       x2="895.4"
       y2="-1068.3"
       gradientTransform="matrix(0.3,0,0,-0.3,-274,-343.5)"
       gradientUnits="userSpaceOnUse"><stop
         offset="0"
         stop-color="#ff5c41"
         id="stop1" /><stop
         offset="1"
         stop-color="#fe177d"
         id="stop2" /></linearGradient></defs><path
     class="st0"
     d="M18.2,0c-5.6,0-10.2,4.6-10.2,10.2v107.6c0,5.6,4.6,10.2,10.2,10.2h91.6c5.6,0,10.2-4.6,10.2-10.2V40.6L82.2,0H18.2Z"
     id="path1"
     style="fill:#c63166;fill-opacity:1" /><g
     id="g1"
     transform="matrix(2.4865496,0,0,2.2856262,-16.906433,-9.066482)"><path
       style="fill:#c63166"
       d="M 28.163147,4 C 25.857512,6.1522078 16.074977,16.029937 10,22.224609 v 1.211328 c 0.972518,-0.875122 2.389112,-2.134065 2.881164,-2.542969 0.289453,-0.240541 1.414189,-1.225338 2.49939,-2.1875 1.085202,-0.962159 2.488035,-2.19252 3.117371,-2.734375 0.629336,-0.541853 1.934536,-1.723603 2.900391,-2.625 1.862917,-1.738592 7.617029,-6.8189627 8.256224,-7.289843 0.208814,-0.153827 0.402949,-0.2578499 0.431214,-0.2296875 0.06248,0.062236 -0.300075,0.6677608 -1.579285,2.6332032 -0.536762,0.8247093 -2.6325,4.0589133 -4.658203,7.1859373 -2.025706,3.127023 -4.539673,7.006428 -5.586547,8.621484 -1.046873,1.615057 -3.360529,5.186126 -5.141602,7.935156 C 12.043979,33.86333 11.07365,35.358964 10,37.014843 V 57.2 c 0,1.5512 1.254375,2.8 2.8125,2.8 H 31.357422 C 34.007067,49.974565 36.747537,33.783015 41.269836,19.558593 L 39.53125,19.4 38,4 Z"
       id="path2-3" /><path
       style="fill:#b8da6c"
       d="M 12.8125,4 C 11.254375,4 10,5.2488 10,6.8 V 22.221875 C 16.072899,16.030035 25.858962,6.1501812 28.163147,4 Z m 17.273254,1.8265625 c -0.02827,-0.028162 -0.2224,0.07586 -0.431214,0.2296875 -0.639197,0.4708803 -6.393307,5.551252 -8.256224,7.289843 -0.965855,0.901397 -2.271055,2.083147 -2.900391,2.625 -0.629336,0.541855 -2.032169,1.772216 -3.117371,2.734375 -1.085201,0.962162 -2.209937,1.946959 -2.49939,2.1875 C 12.389112,21.301872 10.972518,22.560815 10,23.435937 v 13.578906 c 1.07365,-1.655879 2.043979,-3.151513 3.120117,-4.8125 1.781073,-2.74903 4.094729,-6.320098 5.141602,-7.935156 1.046874,-1.615056 3.560841,-5.494461 5.586547,-8.621484 2.025703,-3.127024 4.121441,-6.361228 4.658203,-7.1859373 1.27921,-1.9654424 1.641765,-2.5709676 1.579285,-2.6332032 z"
       id="path3" /><path
       style="fill:#778b3c"
       d="M 55,40.419141 35.65857,60 H 52.1875 C 53.745625,60 55,58.7512 55,57.2 Z"
       id="path4" /><path
       style="fill:#eddf36"
       d="m 39.53125,19.389063 c -4.887172,12.79643 -8.192388,26.127003 -8.797302,36.848437 -0.07367,1.30579 -0.1728,2.909995 -0.219726,3.562891 L 30.500488,60 H 35.65857 L 55,40.419141 V 21 L 39.53125,19.4 Z"
       id="path5" /><path
       style="opacity:0.2"
       d="M 27.138672,5 C 23.926061,8.109657 15.546345,16.567683 10,22.222656 v 1 C 16.072899,17.030816 25.859877,7.1501812 28.164062,5 Z m 2.947266,1.8261719 c -0.02827,-0.028162 -0.222827,0.076641 -0.431641,0.2304687 -0.04937,0.036369 -0.460166,0.4025429 -0.566406,0.4902344 -0.200585,0.3136601 -0.294422,0.470212 -0.582032,0.9121094 -0.536762,0.8247096 -2.6325,4.0604756 -4.658203,7.1874996 -2.025706,3.127023 -4.539063,7.006038 -5.585937,8.621094 -1.046873,1.615058 -3.361505,5.186517 -5.142578,7.935547 C 12.043003,33.864112 11.07365,35.359746 10,37.015625 v 1 c 1.07365,-1.655879 2.043003,-3.151513 3.119141,-4.8125 1.781073,-2.74903 4.095705,-6.320489 5.142578,-7.935547 1.046874,-1.615056 3.560231,-5.494071 5.585937,-8.621094 2.025703,-3.127024 4.121441,-6.36279 4.658203,-7.1874996 1.27921,-1.9654424 1.642558,-2.5705769 1.580079,-2.6328125 z M 55,40.419922 35.658203,60 H 30.5625 c -0.01502,0.228649 -0.03828,0.654032 -0.04883,0.800781 L 30.5,61 h 5.158203 L 55,41.419922 Z"
       id="path9" /></g><path
     class="st2"
     d="M 82.761404,3.1812865 V 32.381287 c 0,3.2 2.2,11.6 12.2,11.6 H 120.5614 Z"
     id="path2"
     style="opacity:0.5;fill:#d6c931;fill-opacity:1" /><path
     class="st2"
     d="M 82.491223,0.21052635 V 29.410527 c 0,3.2 2.2,11.6 12.2,11.6 h 25.599997 z"
     id="path2-5"
     style="opacity:1;isolation:isolate;fill:#faf5bc;fill-opacity:1" /></svg>

<svg xmlns="http://www.w3.org/2000/svg" width="64" height="64" version="1">
 <path style="opacity:0.2" d="M 12.8125,5 C 11.254375,5 10,6.2488 10,7.8 v 50.4 c 0,1.5512 1.254375,2.8 2.8125,2.8 h 39.375 C 53.745625,61 55,59.7512 55,58.2 V 21.8 L 39.53125,20.4 38.125,5 Z"/>
 <path style="fill:#c63166" d="M 28.163147,4 C 25.857512,6.1522078 16.074977,16.029937 10,22.224609 v 1.211328 c 0.972518,-0.875122 2.389112,-2.134065 2.881164,-2.542969 0.289453,-0.240541 1.414189,-1.225338 2.49939,-2.1875 1.085202,-0.962159 2.488035,-2.19252 3.117371,-2.734375 0.629336,-0.541853 1.934536,-1.723603 2.900391,-2.625 1.862917,-1.738592 7.617029,-6.8189627 8.256224,-7.289843 0.208814,-0.153827 0.402949,-0.2578499 0.431214,-0.2296875 0.06248,0.062236 -0.300075,0.6677608 -1.579285,2.6332032 -0.536762,0.8247093 -2.6325,4.0589133 -4.658203,7.1859373 -2.025706,3.127023 -4.539673,7.006428 -5.586547,8.621484 -1.046873,1.615057 -3.360529,5.186126 -5.141602,7.935156 C 12.043979,33.86333 11.07365,35.358964 10,37.014843 V 57.2 c 0,1.5512 1.254375,2.8 2.8125,2.8 H 31.357422 C 34.007067,49.974565 36.747537,33.783015 41.269836,19.558593 L 39.53125,19.4 38,4 Z"/>
 <path style="fill:#b8da6c" d="M 12.8125,4 C 11.254375,4 10,5.2488 10,6.8 V 22.221875 C 16.072899,16.030035 25.858962,6.1501812 28.163147,4 Z m 17.273254,1.8265625 c -0.02827,-0.028162 -0.2224,0.07586 -0.431214,0.2296875 -0.639197,0.4708803 -6.393307,5.551252 -8.256224,7.289843 -0.965855,0.901397 -2.271055,2.083147 -2.900391,2.625 -0.629336,0.541855 -2.032169,1.772216 -3.117371,2.734375 -1.085201,0.962162 -2.209937,1.946959 -2.49939,2.1875 C 12.389112,21.301872 10.972518,22.560815 10,23.435937 v 13.578906 c 1.07365,-1.655879 2.043979,-3.151513 3.120117,-4.8125 1.781073,-2.74903 4.094729,-6.320098 5.141602,-7.935156 1.046874,-1.615056 3.560841,-5.494461 5.586547,-8.621484 2.025703,-3.127024 4.121441,-6.361228 4.658203,-7.1859373 1.27921,-1.9654424 1.641765,-2.5709676 1.579285,-2.6332032 z"/>
 <path style="fill:#778b3c" d="M 55,40.419141 35.65857,60 H 52.1875 C 53.745625,60 55,58.7512 55,57.2 Z"/>
 <path style="fill:#eddf36" d="m 39.53125,19.389063 c -4.887172,12.79643 -8.192388,26.127003 -8.797302,36.848437 -0.07367,1.30579 -0.1728,2.909995 -0.219726,3.562891 L 30.500488,60 H 35.65857 L 55,40.419141 V 21 L 39.53125,19.4 Z"/>
 <path style="opacity:0.1" d="M 38,5 V 19.166667 C 38,20.731517 39.268525,22 40.833333,22 H 55 Z"/>
 <path style="fill:#faf5bc" d="M 38,4 V 18.166667 C 38,19.731517 39.268525,21 40.833333,21 H 55 Z"/>
 <path style="opacity:0.2;fill:#ffffff" d="M 12.8125,4 C 11.254375,4 10,5.2495813 10,6.8007812 v 1 C 10,6.2495812 11.254375,5 12.8125,5 H 38 V 4 Z"/>
 <path style="opacity:0.2" d="M 27.138672 5 C 23.926061 8.109657 15.546345 16.567683 10 22.222656 L 10 23.222656 C 16.072899 17.030816 25.859877 7.1501812 28.164062 5 L 27.138672 5 z M 30.085938 6.8261719 C 30.057668 6.7980099 29.863111 6.9028129 29.654297 7.0566406 C 29.604928 7.0930095 29.194131 7.4591835 29.087891 7.546875 C 28.887306 7.8605351 28.793469 8.017087 28.505859 8.4589844 C 27.969097 9.283694 25.873359 12.51946 23.847656 15.646484 C 21.82195 18.773507 19.308593 22.652522 18.261719 24.267578 C 17.214846 25.882636 14.900214 29.454095 13.119141 32.203125 C 12.043003 33.864112 11.07365 35.359746 10 37.015625 L 10 38.015625 C 11.07365 36.359746 12.043003 34.864112 13.119141 33.203125 C 14.900214 30.454095 17.214846 26.882636 18.261719 25.267578 C 19.308593 23.652522 21.82195 19.773507 23.847656 16.646484 C 25.873359 13.51946 27.969097 10.283694 28.505859 9.4589844 C 29.785069 7.493542 30.148417 6.8884075 30.085938 6.8261719 z M 55 40.419922 L 35.658203 60 L 30.5625 60 C 30.547483 60.228649 30.524219 60.654032 30.513672 60.800781 L 30.5 61 L 35.658203 61 L 55 41.419922 L 55 40.419922 z"/>
</svg>
